src/svg/pointer.svg

<?xml version="1.0" encoding="UTF-8" standalone="no"?>
<svg width="35px" height="35px" viewBox="0 0 35 35" version="1.1" xmlns="http://www.w3.org/2000/svg" xmlns:xlink="http://www.w3.org/1999/xlink">
    <defs></defs>
    <g id="Page-1" stroke="none" stroke-width="1" fill="none" fill-rule="evenodd">
        <g id="pointer">
            <g id="bg" fill="#FFFFFF" opacity="0.00999999978">
                <rect x="0" y="0" width="35" height="35"></rect>
            </g>
            <path d="M12,24.4219 L12,8.4069 L23.591,20.0259 L16.81,20.0259 L16.399,20.1499 L12,24.4219 Z" id="point-border" fill="#FFFFFF"></path>
            <path d="M21.0845,25.0962 L17.4795,26.6312 L12.7975,15.5422 L16.4835,13.9892 L21.0845,25.0962 Z" id="stem-border" fill="#FFFFFF"></path>
            <path d="M19.751,24.4155 L17.907,25.1895 L14.807,17.8155 L16.648,17.0405 L19.751,24.4155 Z" id="stem" fill="#000000"></path>
            <path d="M13,10.814 L13,22.002 L15.969,19.136 L16.397,18.997 L21.165,18.997 L13,10.814 Z" id="point" fill="#000000"></path>
        </g>
    </g>
</svg>

<svg height="35" viewBox="0 0 35 35" width="35" xmlns="http://www.w3.org/2000/svg"><g fill="none" fill-rule="evenodd"><path d="m12 24.4219v-16.015l11.591 11.619h-6.781l-.411.124z" fill="#fff"/><path d="m21.0845 25.0962-3.605 1.535-4.682-11.089 3.686-1.553z" fill="#fff"/><g fill="#000"><path d="m19.751 24.4155-1.844.774-3.1-7.374 1.841-.775z"/><path d="m13 10.814v11.188l2.969-2.866.428-.139h4.768z"/></g></g></svg>
